X:1
T:Titanium_SKKUO
T:Titanium / Pavane
T:Arr. avm
Z:SKKUO
%%score 1 2 3 { 4 | 5 }
L:1/8
Q:1/4=130
M:4/4
K:C
V:1 treble nm="Viool" snm="Vl."
V:2 treble nm="Viool" snm="Vl."
V:3 bass nm="Cello" snm="Vc."
V:4 treble nm="Piano" snm="Pno."
V:5 bass 
V:1
 z8 | z8 | z8 | z8 | z8 | z8 | z8 | z8 | z8 | z8 | z8 | z8 | z2 z"^Arco." G, G,A,CB,- | B,6 G,D- | %14
w: ||||||||||||You shout it ou- t,|_ But I|
 D C2 B,2 B,2 A,- | A, A,2 C4 z | z2 z G, G,A,CB,- | B,3 G, G,A, E,2- | E,4 z4 | z8 | %20
w: _ can't hear a word|_ you say.|I'm talk- ing lou- d,|_ not say- ing much.|_||
 z z z2"^Arco." GAcB- | B4 z GGd- | d c2 B2 B2 A- | A A2 c4 z | z2 z G GAcB- | B3 G GA E2- | %26
w: I'm cri- ti- cized|_ but _ all|_ your bul- lets ri-|* co- chet.|* Shoot me do- wn,|_ but I get up.|
 E2 z2 z4 | z8 | z2 z"^Arco." A ff e2- | e3 B Be e2- | e4 B2 Be- | e3 B3 cA- | A2 z A ff e2- | %33
w: _||I'm bul- let- proof,|_ no- thing to lose.|_ Fire a- way,|_ fire a- way.|_ _ Ri- co- chet,|
 e3 B Be e2- | e4 BBBe- | e3 B3 Ac- | c2 z A aa g2- | g3 e eg g2- | g4 eeec'- | c'3 b4 a- | %40
w: _ you take your aim.|_ Fi- re a- way,|_ fire a- way.|_ You shoot me down|_ but I won't fall,|_ I am ti- ta-|* ni- *|
 a2 z c aa g2- | g3 e eg g2- | g4!ff! eeec'- | c'3 b4 a- | a8 | b8 | b8 | c'3 b4 a- | a8 | g8 | %50
w: * You shoot me down|_ but I won't fall.|_ I am ti- ta-|* ni- um.|||||||
 e2 z2 eeec'- | c'3 [gb]4 a- | a8 | b8 | b8 | c'3 b4 a- | a8 | b8 | g2 z2 eeec'- | c'3 b4 a- | %60
w: * I am ti- ta-|* ni- um.|||||||* I am ti- ta-|* ni- um.|
 a z z2 z4 | z2!f! z G, G,A,CB,- | B,4- B,G,G,D- | D C2 B,2 B,2 A,- | A, A,2 C4 z | %65
w: |* Cut me do- wn|_ _ but it's you|_ who has fur- ther|_ to fall.|
 z2!f! z G GAcB- | B3 G GA E2- | E2 z2 z4 | z8 | z4"^Arco." GAcB- | B4 z GGd- | d c2 B2 B2 A- | %72
w: Gho- * st to- wn,|_ _ haun- ted love.|_||I'm cri- ti- cized|_ but _ all|_ your bul- lets ri-|
 A A2 c4 z | z2 z"^Arco." G GAcB- | B3 G GA E2- | E2 z2 z4 | z8 | z2 z A ff e2- | e3 B Be e2- | %79
w: * co- chet.|* Shoot me do- wn,|_ but I get up.|_||I'm bul- let- proof,|_ no- thing to lose.|
 e4 B2 Be- | e3 B3 cA- | A2 z A ff e2- | e3 B Be e2- | e4 BBBe- | e3 B3 Ac- | c2 z A aa g2- | %86
w: _ Fire a- way,|_ fire a- way.|_ _ Ri- co- chet,|_ you take your aim.|_ Fi- re a- way,|_ fire a- way.|_ You shoot me down|
 g3 e eg g2- | g4 eeec'- | c'3 b4 a- | a2 z c aa g2- | g3 e eg g2- | g4!ff! eeec'- | c'3 b4 a- | %93
w: _ but I won't fall,|_ I am ti- ta-|* ni- *|* You shoot me down|_ but I won't fall.|_ I am ti- ta-|* ni- *|
!ff! a8- |!ff! a8 | z8 | z8 | z8 | z8 | z4!ff! eeec'- | c'3 b4 a- |!ff! a8- |!ff! a8 | z8 | z8 | %105
w: ||||||I am ti- ta-|* ni- *|||||
 z8 | z8 | z8 | z8 | z8 | z8 | z8 | z8 | z8 | z8 | z8 | z8 | z8 | z8 | z8 | z8 | z4!mp! g2 e2- | %122
w: ||||||||||||||||Stone- hard,|
 e3 G g2 e2 | a8 | a4 b4 | a2 z!f! C AA G2- | G3 E EG G2- | G4!ff! EEEc- | c3 B4 A | %129
w: _ those bullet proof|gla-|a- a-|* You shoot me down|_ but I won't fall.|_ I am ti- ta-|* ni- um.|
 z2 z!f! c aa g2- | g3 e eg g2- | g4!ff! eeec'- | c'3 b4 a- | a8- | a8 | g8- | g8 | z8 | z8 | %139
w: You shoot me down|_ but I won't fall.|_ I am ti- ta-|* ni- um.|||||||
 z4!ff! eeec'- | c'3 b4 a | z8 | z8 | z8 | z8 | z8 | z8 | z8 | z8 | z8 | z8 |] %151
w: I am ti- ta-|* ni- um.|||||||||||
V:2
 z8 | z8 | z!ppp!!<(! C7-!<)! |!mp! C8 | C6- CD | ^D6- DF | ^D2 =D2 ^D2 C2 | D6- D^D | %8
w: ||||||||
 D2 C2 D2 ^A,2 | C6- CB, | G,8 | z8 | z"^pizz." .E.c.G .e.G.d.d | z .E.c.G .d.G.c.c | %14
w: ||||||
 z .E.d.A .e.A.d.d | z .E.d.A .e.A.d.d | z .E.c.G .e.G.d.d | z .E.c.G .d.G.c.c | %18
w: ||||
 z .E.d.A .e.A.d.f | .A.e.A.d .A.e.G.c | z"^pizz." .E.c.G .e.G.d.d | z .E.c.G .d.G.c.c | %22
w: ||||
 z .E.d.A .e.A.d.d | z .E.d.A .e.A.d.d | z .E.c.G .e.G.d.d | z .E.c.G .d.G.c.c | %26
w: ||||
 z .E.d.A .e.A.d.f | .A.e.A.d .A.e.G.c | z8 | z8 | z4"^Arco."!mp! C!<(!.C.C.C | .C.C.C.C .C.C.C.C | %32
w: ||||||
 .C.C.C.C .C.C.C.C | .D!<)!!mf!.D.D.D .D.D.D.D | .D.D.D.D .D.D.D.D |!>(! .E.E.E.D .D.D.D.D!>)! | %36
w: ||||
!mf! .C.C.C.C .C.C.C.C | .D.D.D.D .D.D.D.D | .B,.B,.B,.B, .B,.B,.B,.B, | %39
w: |||
[K:treble] .E.E.E.E .[CE].E.E.E | .C.C.C.C .C.C.C.C | .D.D.D.D .D.D.D.D | .D z z z z4 | z8 | %44
w: |||||
!mf! A,/A,/B,/B,/ C/C/B,/B,/ A,/A,/B,/B,/ C/C/B,/B,/ | %45
w: |
 G,/G,/B,/B,/ C/C/B,/B,/ G,/G,/B,/B,/ C/C/B,/B,/ | %46
w: |
 E,/E,/B,/B,/ C/C/B,/B,/ E,/E,/B,/B,/ C/C/B,/B,/ | %47
w: |
 G,/G,/B,/B,/ C/C/B,/B,/ G,/G,/B,/B,/ C/C/B,/B,/ | %48
w: |
 A,/A,/B,/B,/ C/C/B,/B,/ A,/A,/B,/B,/ C/C/B,/B,/ | A,/A,/B,/B,/ C/C/B,/B,/ C/C/B,/B,/ C/C/D/D/ | %50
w: ||
 z4 EEEC- | C3 B,4 A,- | A,8 | G,/G,/B,/B,/ C/C/B,/B,/ G,/G,/B,/B,/ C/C/B,/B,/ | %54
w: I * * ta-|* ni- um.|||
 G,/G,/B,/B,/ C/C/B,/B,/ G,/G,/B,/B,/ C/C/B,/B,/ | %55
w: |
 A,/A,/B,/B,/ C/C/B,/B,/ A,/A,/B,/B,/ C/C/B,/B,/ | %56
w: |
 A,/A,/B,/B,/ C/C/B,/B,/ A,/A,/B,/B,/ C/C/B,/B,/ | A,/A,/B,/B,/ C/C/B,/B,/ C/B,/B,/B,/ C/C/D/D/ | %58
w: ||
 A,/A,/B,/B,/ C/C/B,/B,/ A,/A,/B,/B,/ C/C/B,/B,/ | %59
w: |
 A,/A,/B,/B,/ C/C/B,/B,/ A,/A,/B,/B,/ C/C/B,/B,/ | z8 | z8 |"^Pizz." .D.G,.C.G, .D.G,.C.G, | %63
w: ||||
 z .A,.D.A, .E.A,.D.F | .A,.E.A,.D .A,.E.A,.C | z .G,.D.G, .E.G,.D.G, | .D.G,.C.G, .D.G,.C.G, | %67
w: ||||
 z .A,.D.A, .E.A,.D.F | .A,.E.A,.D .A,.E.A,.C | z"^Arco." .G,.C.G, .E.G,.D.G, | %70
w: |||
 D.G,.C.G, .D.G,.C.C | z .E,.D.A, .E.A,.D.F | z .G,.D.A, .E.A,.D.D | z .G,.C.G, .E.G,.D.G, | %74
w: ||||
 E.G,.C.G, .D.G,.C.C | z .G,.D.A, .E.A,.D.F | .A,.E.A,.D .A,.E.G,.C |"^Pizz." .c.A.c.A .c.A.c.A | %78
w: ||||
 .B.A.B.A .B.A.B.A | .B.G.B.G .B.G.B.G | .c.A.c.A .c.A.c.A | .c.A.c.A .c.A.c.A | %82
w: ||||
 .d.B.d.B .d.B.d.B | .e.c.e.c .e.c.e.c | .c.A.c.A .c.A.c.A |"^Arco." .c.A.c.A .c.A.c.A | %86
w: ||||
 .B.A.B.A .B.A.B.A | .B.G.B.G .B.G.B.G | .c.A.c.A .c.A.c.A | .c.A.c.A .c.A.c.A | %90
w: ||||
 .d.B.d.B .d.B.d.B | .e.B.e.B .e.B.e.B | .e.B.e.B .e.B.e.B |!ff! A6- Ad | c2{dc} B2 c2 A2 | %95
w: |||||
 G6- Gc | B2{cB} A2 B2 G2 | F8 | z8 | EEEc- c2 cd- | d2 z e- e2 C/C/B,/B,/ | z2 ^d2 e2 a2 | g8 | %103
w: ||||I am ti- ta- * * ni-|* um. * * * * *|||
 z2 c2 d2 g2 | f4 g2 d2 | c2 B2 c2 e2 | B8 | z2 E2 ^G2 B2 | A2 c2 e2 [Aa]2 | z4 z4 | %110
w: |||||||
 C2 B,2 B,2 A,2 | G,8 | C2 B,2 B,2 A,2 | A,8 | E2 D2 D2 C2 | B,8 | E2 D2 D2 C2 | z8 | z8 | z8 | %120
w: ||||||||||
 z8 | z4!mp! g2 e2- | e3 G g2 a2 | c'8 | c'4 d'4 | e'8 | e'8 | g'8 | g'8 | A8 | G8 | %131
w: |Stone- hard,|_ those bullet proof|gla-|a- a-|||||||
 z2 z2!ff! EEEc- | c3 B4 A |!ff! A6- Ad | c2{dc} B2 c2 A2 | B6- Bc | B2{cB} A2 B2 G2 | [Af]8 | %138
w: I am ti- ta-|* ni- um.||||||
 [Be]8 | E,/E,/B,/B,/ C/C/B,/B,/ E,/E,/B,/B,/ C/C/B,/B,/ | %140
w: ||
 A,/A,/B,/B,/ C/C/B,/B,/ A,/A,/B,/B,/ C/C/B,/B,/ | a2 d2 e2 a2 | g8 | c2 B2 c2 g2 | f4 g2 d2 | %145
w: |||||
 c2 B2 c2 e2 | e4 d4 | z2 E2 ^G2 B2 | A2 c2 e2 A2 | z8 | z8 |] %151
w: ||||||
V:3
"^Pizz."!mf! C,.G,.D.G, .^D.G,.=D.G, | .D.G,.C.G, .D.G,.C.G, | z .F,.C.F, .D.F,.C.F, | %3
w: |||
 .C.F,.^A,.F, .C.F,.A,.F, | z .G,.D.G, .^D.G,.=D.G, | .D.G,.C.G, .D.G,.C.G, | %6
w: |||
 z .F,.C.F, .D.F,.C.F, | .C.F,.^A,.F, .C.F,.A,.F, | z .^D,.C.D, .D.D,.C.D, | %9
w: |||
 .C.^D,.^A,.D, .C.D,.A,.D, | z .D,.B,.D, .C.D,.B,.D, | .C.D,.B,.D, .C.D,.B,.D, | %12
w: |||
 .G,.D.G,.E .G,.D.G,.D | .G,.C.G,.D .G,.C.G, z | .A,.D.A,.E .A,.D.A, z | .A,.D.A,.E .A,.D.A, z | %16
w: ||||
 .G,.D.G,.E .G,.D.G,.D | .G,.C.G,.D .G,.C.G, z | .A,.D.A,.E .A,.D.F.A, | .E.A,.D.A, .E.A,.C z | %20
w: ||||
 .G,.D.G,.E .G,.D.G,.D | .G,.C.G,.D .G,.C.G, z | .A,.D.A,.E .A,.D.A, z | .A,.D.A,.E .A,.D.A, z | %24
w: ||||
 .G,.D.G,.E .G,.D.G,.D | .G,.C.G,.D .G,.C.G, z | .A,.D.A,.E .A,.D.F.A, | .E.A,.D.A, .E.A,.C z | %28
w: ||||
 z8 | z8 | z4!mp!"^Arco." A,A,A,A, | A,A,A,A, A,A,A,A, | A,A,A,A, A,A,A,A, | B,B,B,B, B,B,B,B, | %34
w: ||||||
 B,B,B,B, B,B,B,B, | CCCB, G,,2 G,,F,, |!mf! .F,,.F,, z .F,, .F,,.F,, z .F,, | %37
w: |||
!<(! .G,,.G,, z .G,, .G,,.G,, z .G,, | .E,,.E,, z .E,, .E,,.E,, z .E,, | %39
w: ||
 .A,,.A,, z .A,, .A,,.A,, z .A,, | .F,,.F,, z .F,, .F,,.F,, z .F,, | %41
w: ||
 .G,,.G,, z .G,, .G,,.G,, z .G,, | .E,, z z z z4 | z8!<)! |!ff! C6- CD | C2{DC} B,2 C2 A,2 | %46
w: |||||
 B,6- B,C | B,2{CB,} A,2 B,2 G,2 | A,8 | z8 | E,/E,/B,/B,/ C/C/B,/B,/ E,/E,/B,/B,/ C/C/B,/B,/ | %51
w: |||||
 A,/A,/B,/B,/ C/C/B,/B,/ A,/A,/B,/B,/ C/C/B,/B,/ | %52
w: |
 A,/A,/B,/B,/ C/C/B,/B,/ A,/A,/B,/B,/ C/C/B,/B,/ | B,8 | z2 C2 D2 G2 | F4 G2 D2 | C2 B,2 C2 E2 | %57
w: |||||
 B,8 | z2 E,2 ^G,2 B,2 | A,2 C2 E2 A,2 | z8 | z8 | z8 | z8 | z8 | z8 | z8 | z8 | z8 | %69
w: ||||||||||||
"^arco" !>![C,,C,]8 | B,,8 | A,,8 | [E,,E,]8 | [C,,C,]8 | B,,8 | A,,8 | A,,8 | F,,8 | G,,8 | E,,8 | %80
w: |||||||||||
 F,,8 | F,,8 | G,,8 | E,,8 | A,,8 |!mf! .F,,.F,, z .F,, .F,,.F,, z .F,, | %86
w: ||||||
 .G,,.G,, z .G,, .G,,.G,, z .G,, | .E,,.E,, z .E,, .E,,.E,, z .E,, | %88
w: ||
 .A,,.A,, z .A,, .A,,.A,, z .A,, | .F,,.F,, z .F,, .F,,.F,, z .F,, | %90
w: ||
 .G,,.G,, z .G,, .G,,.G,, z .G,, | .E,,E,,E,,E,, E,,E,,E,,E,, | .A,,A,,A,,A,, z4 | %93
w: |||
!ff! A,/A,/B,/B,/ C/C/B,/B,/ A,/A,/B,/B,/ C/C/B,/B,/ | %94
w: |
 G,/G,/B,/B,/ C/C/B,/B,/ G,/G,/B,/B,/ C/C/B,/B,/ | %95
w: |
 E,/E,/B,/B,/ C/C/B,/B,/ E,/E,/B,/B,/ C/C/B,/B,/ | %96
w: |
 G,/G,/B,/B,/ C/C/B,/B,/ G,/G,/B,/B,/ C/C/B,/B,/ | %97
w: |
 A,/A,/B,/B,/ C/C/B,/B,/ A,/A,/B,/B,/ C/C/B,/B,/ | A,/A,/B,/B,/ C/C/B,/B,/ C/C/B,/B,/ C/C/D/D/ | %99
w: ||
 E,,2 z2 E,,E,,E,,C,- | C,2 C,B,,- B,,2 z A,,- | A,,8 | %102
w: * I am ti- ta-|* * ni- * um.||
 G,/G,/B,/B,/ C/C/B,/B,/ G,/G,/B,/B,/ C/C/B,/B,/ | %103
w: |
 G,/G,/B,/B,/ C/C/B,/B,/ G,/G,/B,/B,/ C/C/B,/B,/ | %104
w: |
 A,/A,/B,/B,/ C/C/B,/B,/ A,/A,/B,/B,/ C/C/B,/B,/ | %105
w: |
 A,/A,/B,/B,/ C/C/B,/B,/ A,/A,/B,/B,/ C/C/B,/B,/ | A,/A,/B,/B,/ C/C/B,/B,/ C/B,/B,/B,/ C/C/B,/B,/ | %107
w: ||
 ^G,/G,/B,/B,/ C/C/B,/B,/ G,/G,/B,/B,/ C/C/B,/B,/ | %108
w: |
 A,/A,/B,/B,/ C/C/B,/B,/ A,/A,/B,/B,/ C/C/A,/A,/ | A,4 A,,4 | G,,8 | E,,8 | A,,8 | F,,8 | G,,8 | %115
w: |||||||
 G,,8 | A,,2 G,,2 F,,2 E,,2 | z4 G,2 E,2- | E,3 D, G,2 E,2- | E,4 G,2 E,2 | D,2 F,2 E,2 z2 | %121
w: ||||||
 z4 G,2 E,2- | E,3 G,, G,2 E,2 | A,8 | A,4 B,4 | z8 | z8 | z8 | z8 | z8 | z8 | z2 z2!ff! E,E,E,C- | %132
w: Stone- hard,|_ those bullet proof|gla-|a- as-|||||||I am ti- ta-|
 C3 B,4 A, |!mf! A,/A,/B,/B,/ C/C/B,/B,/ A,/A,/B,/B,/ C/C/B,/B,/ | %134
w: * ni- um.||
 G,/G,/B,/B,/ C/C/B,/B,/ G,/G,/B,/B,/ C/C/B,/B,/ | %135
w: |
 E,/E,/B,/B,/ C/C/B,/B,/ E,/E,/B,/B,/ C/C/B,/B,/ | %136
w: |
 G,/G,/B,/B,/ C/C/B,/B,/ G,/G,/B,/B,/ C/C/B,/B,/ | %137
w: |
 A,/A,/B,/B,/ C/C/B,/B,/ A,/A,/B,/B,/ C/C/B,/B,/ | A,/A,/B,/B,/ C/C/B,/B,/ C/C/B,/B,/ C/C/D/D/ | %139
w: ||
 z4!ff! E,E,E,C- | C3 B,4 A, | A,/A,/B,/B,/ C/C/B,/B,/ A,/A,/B,/B,/ C/C/B,/B,/ | %142
w: I am ti- ta-|* ni- um.||
 G,/G,/B,/B,/ C/C/B,/B,/ G,/G,/B,/B,/ C/C/B,/B,/ | %143
w: |
 G,/G,/B,/B,/ C/C/B,/B,/ G,/G,/B,/B,/ C/C/B,/B,/ | %144
w: |
 A,/A,/B,/B,/ C/C/B,/B,/ A,/A,/B,/B,/ C/C/B,/B,/ | %145
w: |
 A,/A,/B,/B,/ C/C/B,/B,/ A,/A,/B,/B,/ C/C/B,/B,/ | A,/A,/B,/B,/ C/C/B,/B,/ C/B,/B,/B,/ C/C/B,/B,/ | %147
w: ||
 ^G,/G,/B,/B,/ C/C/B,/B,/ G,/G,/B,/B,/ C/C/B,/B,/ | %148
w: |
 A,/A,/B,/B,/ C/C/B,/B,/ A,/A,/B,/B,/ C/C/A,/A,/ | A,,8- | A,,8 |] %151
w: |||
V:4
 z8 | z8 | z8 | z8 | z8 | z8 | z8 | z8 | z8 | z8 | z .D.B.D .c.D.B.D | .c.D.B.D .c.D.B.D | %12
w: ||||||||||||
"^pizz." .C.C.E.C .G.C.E.G | .B,.D.E.D .G.C.D.G | A,.C.E.D .A.D.E.G | E.C.E.C .G.B,.E.G | %16
w: ||||
 .C.C.E.C .G.C.E.G | .B,.D.E.D .G.C.D.G | A,.C.E.C .A.C.E.A | .A,2 z2 z4 | %20
w: ||||
"^pizz." .C.C.E.C .G.C.E.G | .B,.D.E.D .G.C.D.G | A,.C.E.D .A.D.E.G | E.C.E.C .G.B,.E.G | %24
w: ||||
 .C.C.E.C .G.C.E.G | .B,.D.E.D .G.C.D.G | A,.C.E.C .A.C.E.A | .A,2 z2 z4 | [F,A,]8 | [G,B,]8 | %30
w: ||||||
 [E,B,]8 | [A,C]8 | [F,A,]8 | [G,B,]8 | [E,B,]8 | [A,C]8 | %36
w: ||||||
!mf! [A,ce][A,A][A,ce][A,A] [A,ce][A,A][A,ce][A,A] | %37
w: |
!<(! [B,df][B,B][B,df][B,B] [B,df][B,B][B,df][B,B] | %38
w: |
 [G,df][G,c][G,df][G,c] [G,df][G,c][G,df][G,c] | [Ceg][Cc][Ceg][Cc] [Ceg][Cc][Ceg][Cc] | %40
w: ||
 [A,ea][A,c][A,ea][A,c] [A,ea][A,c][A,ea][A,c] | [eb]d[eb]d [eb]d[eb]d | [GB] z z z z4 | z8!<)! | %44
w: ||||
!ff! [Acfa]2 [Acfa]2 c2 a2 |!ff! [Bdgb]2 [Bdgb]2 d2 b2 |!ff! [^GBe^g]2 [GBeg]2 B2 g2 | g8 | %48
w: ||||
!ff! [Acfa]2 [Acfa]2 c2 a2 |!ff! [Bdgb]2 [Bdgb]2 d2 b2 | [E,E] z z2 [Ee][Ee][Ee][cc']- | %51
w: ||* I am ti- ta-|
 [cc']2 c [dgb]3 z [ca] |!ff! [Acfa]2 [Acfa]2 c2 a2 |!ff! [Bdgb]2 [Bdgb]2 d2 b2 | z2 b2 e2 b2 | %55
w: * * ni- um.||||
 c'8 | z2 c'2 e2 e'2 | e'4 d'4 | z2 e'2 b2 e'2 | [eae']8 | [cea]edc BcBA | %61
w: ||||||
 [gc']b[gc']b [gc']b[gc']b | [gd']b[gd']b [gd']b[gd']b | [ad']c'[ad']c' [ad']c'[ad']c' | %64
w: |||
 [ae']c'[ae']c' [ae']c'[ae']c' | [c'g']e'[c'g']e' [c'g']e'[c'g']e' | %66
w: ||
 [bg']e'[bg']e' [bg']e'[bg']e' | [c'a']e'[c'a']e' [c'a']e'[c'a']e' | %68
w: ||
 [aa']f'[aa']f' [aa']f'[aa']f' | z .G,.D.G, .E.G,.D.G, | .D.G,.C.G, .D.G,.C.G, | %71
w: |||
 z .A,.D.A, .E.A,.D.A, | z .A,.D.A, .E.A,.D.A, | z .G,.D.G, .E.G,.D.G, | .D.G,.C.G, .D.G,.C.G, | %75
w: ||||
 z .A,.D.A, .E.A,.D.F | .A,.E.A,.D .A,.E.A,.C |"^Arco." [F,A,-]6 A,B, | [G,C-]6 CD | %79
w: ||||
 [E,C]2 B,2 C2 G,2 | [F,A,]8 |"^Arco." [F,A,-]6 A,B, | [G,C-]6 CD | [G,CE]2 D2 C2 B,2 | %84
w: |||||
 [E,A,]2 G,2 F,2 E,2 |!mf! .[F,A,F]2 .[F,A,F]2 .[F,A,F]2 .[F,A,F]2 | %86
w: ||
!<(! .[G,B,G]2 .[G,B,G]2 .[G,B,G]2 .[G,B,G]2 | .[G,B,G]2 .[G,B,G]2 .[G,B,G]2 .[G,B,G]2 | %88
w: ||
 .[A,CA]2 .[A,CA]2 .[A,CA]2 .[A,CA]2 | %89
w: |
 .[F,A,F].[F,A,F].[F,A,F].[F,A,F] .[F,A,F].[F,A,F].[F,A,F].[F,A,F] | %90
w: |
 .[G,B,G].[G,B,G].[G,B,G].[G,B,G] .[G,B,G].[G,B,G].[G,B,G].[G,B,G] | %91
w: |
 .[G,B,G].[G,B,G].[G,B,G].[G,B,G] .[G,B,G].[G,B,G].[G,B,G].[G,B,G] | %92
w: |
 .[A,CA].[A,CA].[A,CA].[A,CA] .[A,CA].[A,CA].[A,CA].[A,CA]!<)! |!ff! [Afa]cc[Acfa] [Afa]cc[Acfa] | %94
w: ||
 [cfa]3 [Bdg] [Bdg]2 g/f/e/f/ |!ff! [Geg]BB[Geg] [Geg]BB[Geg] | [Geg]6 f/e/d/e/ | %97
w: |||
 [Fcf]AA[Fcf] [Fcf]AA[Fcf] | [Fcf]4 e3 d | [^GBeb]ee[GBeb] [GBeb]ee[cec']- | %100
w: |||
 [cec'][cec'][cec'] [Bgb]2 [Bgb][Bgb][Aca]- | [Aca]2 [Aca]2 c2 [Aca]2 | %102
w: * * * ni- * * um.||
 [cfa]3 [dgb] [dgb]2 b/a/g/a/ | [dgb]ee[dgb] [dgb]ee[dgb] | [eac']4 a2 c'/b/a/b/ | %105
w: |||
 [eac']ee[eac'] [eac']ee[fbe'] |!8va(! [fbe']4 [dbd']3 [be'b'] | %107
w: ||
 [be'b']e'e'[be'b'] [be'b']e'e'[be'b'] | [ac'a']a[ac'a']a [ac'a']a[ac'a'] z!8va)! | F2 f2 edcB | %110
w: |||
 c2 B2 B2 A2 | G2 g2 fedB | c2 B2 B2 A2 | A2 [fa]2 [eg][df][ce][Bd] | [ce]2 [Bd]2 [Bd]2 [Ac]2 | %115
w: |||||
 [GB]2 [eg]2 [eg][df][ce][Bd] | [ce]2 [Bd]2 [Bd]2 [Ac]2 | [F,A,]8 | [G,B,]8 | [E,B,]8 | [A,C]8 | %121
w: ||||||
 [F,A,]8 | [G,B,]8 | [E,B,]8 | [A,C]8 |!mf! .[A,C]2 .[A,C]2 .[A,C]2 .[A,C]2 | %126
w: |||||
 .[G,B,]2 .[G,B,]2 .[G,B,]2 .[G,B,]2 | .[E,B,]2 .[E,B,]2 .[E,B,]2 .[E,B,]2 | %128
w: ||
 .[A,C]2 .[A,C]2 .[A,C]2 .[A,C]2 | aeae aeae | bebe bebe | [be'] z z2 z4 | z8 | %133
w: |||||
!ff! [A,FA]2!ff! [Afa]2 [Aeg]/f/e/d/ cd | cB B4 z2 | %135
w: ||
!ff! [B,GB]2!ff! [G,EG]2!ff! [B,GB]2!ff! [EBe]2 | %136
w: |
!ff! [Ece]2!ff! [G,CG]2!ff! [Ece]2!ff! e'/d'/c'/b/ | [Fca]3 c' b/a/g/f/ ef | %138
w: ||
 [dfc'][dgb] [dgb]4 A/B/c/d/ | [^GBeb]2 [GBe]2 [GBeb][GBe][GBe][cec']- | %140
w: ||
 [cec'][cec'][cec'] [Bgb]2 [Bgb][Bgb][Aca]- | [Aca]2!ff! [Afa]2 [Aeg]/f/e/d/ cd | %142
w: * * * ni- * * um.||
 cBBg f/e/d/c/ Bc |!ff! [B,GB]2!ff! [G,EG]2!ff! [B,GB]2!ff! [EBe]2 | %144
w: ||
!ff! [Ece]2!ff! [G,CG]2!ff! [Ece]2!ff! e'/d'/c'/b/ | [Fca]2 [af'a']2 g'/f'/e'/d'/ c'd' | %146
w: ||
 [cfc'][Bgb][Bgb]g f/e/d/c/ Bc |!ff! [B,^GB]2!ff! [E,^G,E]2!ff! [B,GB]2!ff! [EBe]2 | %148
w: ||
 [ac'e'a']/e'/c'/e'/ [ac'e'a']/e'/c'/e'/ [ac'e'a']/e'/c'/e'/ [ac'e'a']/e'/c'/e'/ | [Acea]2 z2 z4 | %150
w: ||
 z8 |] %151
w: |
V:5
!mf! .C, z z2 z4 | .^G,, z z2 z4 | .^A,, z z2 z4 | .G,, z z2 z4 | .C, z z2 z4 | .^G,, z z2 z4 | %6
 .^A,, z z2 z4 | .G,, z z2 z4 | .^G,, z z2 z4 | .F,, z z2 z4 | .G,, z z2 z4 | z8 | %12
!f!!f! [C,,C,]4 z4 | [B,,,B,,]4 z4 | [A,,,A,,]4 z4 | [E,,E,]4 z4 | [C,,C,]4 z4 | [B,,,B,,]4 z4 | %18
 [A,,,A,,]4 z4 | [A,,,A,,]4 z4 |!f!!f! [C,,C,]4 z4 | [B,,,B,,]4 z4 | [A,,,A,,]4 z4 | [E,,E,]4 z4 | %24
 [C,,C,]4 z4 | [B,,,B,,]4 z4 | [A,,,A,,]4 z4 | [A,,,A,,]4 z4 | [F,,,F,,]8 | [G,,,G,,]8 | %30
 [E,,,E,,]8 | A,,8 | F,,8 | G,,8 | E,,8 | A,,8 | F,,8 | G,,8 | E,,8 | A,,8 | F,,8 | G,,8 | E,,8 | %43
 z8 |!ff! [F,,,F,,]2 [F,,,F,,]2 [F,,,F,,]2 [F,,,F,,]2 | %45
!ff! [G,,,G,,]2 [G,,,G,,]2 [G,,,G,,]2 [G,,,G,,]2 | %46
!ff! [E,,,E,,]2 [E,,,E,,]2 [E,,,E,,]2 [E,,,E,,]2 | [A,,A,]8 | %48
!ff! [F,,,F,,]2 [F,,,F,,]2 [F,,,F,,]2 [F,,,F,,]2 | %49
!ff! [G,,,G,,]2 [G,,,G,,]2 [G,,,G,,]2 [G,,,G,,]2 | [E,,,E,,]2 z2 E,,E,,F,E,, | %51
 A,,,/A,,/A,,,/A,,/ A,,,/A,,/A,,,/A,,/ A,,,/A,,/A,,,/A,,/ [A,,,A,,]2 | %52
!ff! [F,,,F,,]2 [F,,,F,,]2 [F,,,F,,]2 [F,,,F,,]2 | %53
!ff! [G,,,G,,]2 [G,,,G,,]2 [G,,,G,,]2 [G,,,G,,]2 | [E,,E,]2 [E,,E,]2 [E,,E,]2 [E,,E,]2 | %55
 [A,,A,]4 [A,,A,]4 | [F,,F,]4 [F,,F,]4 | [G,,G,]4 [G,,G,]4 | [E,,E,]4 [E,,E,]4 | [A,,A,]8 | z8 | %61
 !>![C,,C,]8 | [B,,,B,,]8 | [A,,,A,,]8 | [E,,E,]8 | [C,,C,]8 | [B,,,B,,]8 | [A,,,A,,]8 | %68
 [F,,,F,,]8 | !>![C,,C,]8 | [B,,,B,,]4 z4 | [A,,,A,,]4 z4 | [E,,E,]4 z4 | [C,,C,]4 z4 | %74
 [B,,,B,,]4 z4 | [A,,,A,,]4 z4 | [A,,,A,,]4 z4 | [F,,,F,,]8 | [G,,,G,,]8 | [E,,,E,,]8 | F,,8 | %81
 F,,8 | G,,8 | E,,8 | A,,8 | .[F,,A,,F,]2 .[F,,A,,F,]2 .[F,,A,,F,]2 .[F,,A,,F,]2 | %86
 .[G,,B,,G,]2 .[G,,B,,G,]2 .[G,,B,,G,]2 .[G,,B,,G,]2 | %87
 .[E,,G,,E,]2 .[E,,G,,E,]2 .[E,,G,,E,]2 .[E,,G,,E,]2 | %88
 .[A,,,C,,A,,]2 .[A,,,C,,A,,]2 .[A,,,C,,A,,]2 .[A,,,C,,A,,]2 | %89
 .[F,,A,,F,].[F,,A,,F,].[F,,A,,F,].[F,,A,,F,] .[F,,A,,F,].[F,,A,,F,].[F,,A,,F,].[F,,A,,F,] | %90
 .[G,,B,,G,].[G,,B,,G,].[G,,B,,G,].[G,,B,,G,] .[G,,B,,G,].[G,,B,,G,].[G,,B,,G,].[G,,B,,G,] | %91
 .[E,,G,,E,].[E,,G,,E,].[E,,G,,E,].[E,,G,,E,] .[E,,G,,E,].[E,,G,,E,].[E,,G,,E,].[E,,G,,E,] | %92
 .[A,,,C,,A,,].[A,,,C,,A,,].[A,,,C,,A,,].[A,,,C,,A,,] .[A,,,C,,A,,].[A,,,C,,A,,].[A,,,C,,A,,].[A,,,C,,A,,] | %93
!ff! [F,,,F,,]2 [F,,,F,,]2 [F,,,F,,]2 [F,,,F,,]2 | %94
 [G,,C,G,]2 [G,,B,,G,]2 [G,,-C,G,-]2 [G,,A,,G,]2 | [E,,E,]2 [E,,E,]2 [E,,E,]2 [E,,E,]-[E,,A,,E,] | %96
 [A,,-B,,A,-]2 [A,,A,]2 [A,,-B,,A,-]2 [G,,A,,A,]2 | [F,,F,]2 [F,,F,]2 [F,,F,]2 [F,,F,]2 | %98
 [G,,G,]2 [G,,G,]2 [G,,G,]2 [G,,G,]2 | [E,,E,]2 [E,,E,]2 [E,,E,]2 [E,,E,]2 | %100
 [A,,,A,,][A,,,A,,][A,,,A,,][A,,,A,,] [A,,,A,,][A,,,A,,][A,,,A,,][A,,,A,,] | %101
 [F,,,F,,]2 [F,,,F,,]2 [F,,,F,,]2 [F,,,F,,]2 | [G,,G,]2 [G,,G,]2 [G,,G,]4 | %103
 [E,,E,]2 [E,,E,]2 [E,,E,]2 [E,,E,]2 | [A,,A,]2 [A,,A,]2 [A,,A,]2 [A,,A,]2 | %105
 [F,,F,]2 [F,,F,]2 [F,,F,]2 [F,,F,]2 | [G,,G,]2 [G,,G,]2 [G,,G,]2 [G,,G,]2 | %107
 [E,,E,]2 [E,,E,]2 [E,,E,]2 [E,,E,]2 | [A,,A,]2 [A,,A,]2 [A,,A,]2 [A,,A,]2 | F,,C,F,G, A,2 G,F, | %110
 G,,D,G,A, B,2 G,G,, | E,,B,,E,G, B,2 E,E,, | A,,E,A,B, C2 A,A,, | F,,C,F,G, A,2 F,2 | %114
 G,,D,G,A, B,2 G,2 | E,,B,,E,G, B,2 E,E,, | A,,E,A,B, C2 A,A,, | [F,,,F,,]8 | [G,,,G,,]8 | %119
 [E,,,E,,]8 | A,,8 | [F,,,F,,]8 | [G,,,G,,]8 | [E,,,E,,]8 | A,,8 | z8 | z8 | z8 | z8 | %129
 .[A,C]2 .[A,C]2 .[A,C]2 .[A,C]2 | .[G,B,]2 .[G,B,]2 .[G,B,]2 .[G,B,]2 | .[E,B,]2 z2 z4 | z8 | %133
!ff! [F,,,F,,]2!ff! [F,,,F,,]2 [F,,,F,,]2 [F,,,F,,]2 | %134
 [G,,C,G,]2 [G,,B,,G,]2 [G,,C,G,]2 [G,,A,,G,]2 | [E,,E,]2 [E,,E,]2 [E,,E,]2 [E,,E,]2 | %136
 [A,,B,,A,]2 [A,,A,]2 [A,,B,,A,]2 [G,,A,,A,]2 | [F,,F,]2 [F,,F,]2 [F,,F,]2 [F,,F,]2 | %138
 [G,,G,]2 [G,,G,]2 [G,,G,]2 [G,,G,]2 | [E,,E,]2 [E,,E,]2 [E,,E,]2 [E,,E,]2 | %140
 [A,,,A,,][A,,,A,,][A,,,A,,][A,,,A,,] [A,,,A,,][A,,,A,,][A,,,A,,][A,,,A,,] | %141
 [F,,,F,,]2 [F,,,F,,]2 [F,,,F,,]2 [F,,,F,,]2 | [G,,G,]2 [G,,G,]2 [G,,G,]2 [G,,G,]2 | %143
 [E,,E,]2 [E,,E,]2 [E,,E,]2 [E,,E,]2 | [A,,A,]2 [A,,A,]2 [A,,A,]2 [A,,A,]2 | %145
 [F,,F,]2 [F,,F,]2 [F,,F,]2 [F,,F,]2 | [G,,G,]2 [G,,G,]2 [G,,G,]2 [G,,G,]2 | %147
 [E,,E,]2 [E,,E,]2 [E,,E,]2 [E,,E,]2 | [A,,A,]2 [A,,A,]2 [A,,A,]2 [A,,A,]2 | [A,,A,]2 z2 z4 | z8 |] %151

